static/assets/icons/book.svg

<svg height="24" viewBox="0 0 24 24" width="24" xmlns="http://www.w3.org/2000/svg"><path d="m20 6v10c0 .5522847-.4477153 1-1 1h-5c-1.1045695 0-2 .8954305-2 2 0-1.1045695-.8954305-2-2-2h-5c-.55228475 0-1-.4477153-1-1v-10h-1v12h6c1.1946925 0 2.2670555.5237549 3 1.3541756.7329445-.8304207 1.8053075-1.3541756 3-1.3541756h6v-12zm-16-1v-1c0-.55228475.44771525-1 1-1h5c.7683544 0 1.4692435.28885357 2 .76389349.5307565-.47503992 1.2316456-.76389349 2-.76389349h5c.5522847 0 1 .44771525 1 1v1h1c.5522847 0 1 .44771525 1 1v12c0 .5522847-.4477153 1-1 1h-6c-1.6568542 0-3 1.3431458-3 3 0-1.6568542-1.3431458-3-3-3h-6c-.55228475 0-1-.4477153-1-1v-12c0-.55228475.44771525-1 1-1zm1-1v12h5c.7683544 0 1.4692435.2888536 2 .7638935.5307565-.4750399 1.2316456-.7638935 2-.7638935h5v-12h-5c-1.1045695 0-2 .8954305-2 2 0-1.1045695-.8954305-2-2-2zm1.5 7h4c.2761424 0 .5.2238576.5.5s-.2238576.5-.5.5h-4c-.27614237 0-.5-.2238576-.5-.5s.22385763-.5.5-.5zm7-3h4c.2761424 0 .5.22385763.5.5v3c0 .2761424-.2238576.5-.5.5h-4c-.2761424 0-.5-.2238576-.5-.5v-3c0-.27614237.2238576-.5.5-.5zm.5 1v2h3v-2zm-7.5-3h4c.2761424 0 .5.22385763.5.5v3c0 .27614237-.2238576.5-.5.5h-4c-.27614237 0-.5-.22385763-.5-.5v-3c0-.27614237.22385763-.5.5-.5zm.5 1v2h3v-2zm-.5 6h1c.27614237 0 .5.2238576.5.5s-.22385763.5-.5.5h-1c-.27614237 0-.5-.2238576-.5-.5s.22385763-.5.5-.5zm3 0h1c.2761424 0 .5.2238576.5.5s-.2238576.5-.5.5h-1c-.27614237 0-.5-.2238576-.5-.5s.22385763-.5.5-.5zm4-7h1c.2761424 0 .5.22385763.5.5s-.2238576.5-.5.5h-1c-.2761424 0-.5-.22385763-.5-.5s.2238576-.5.5-.5zm0 7h4c.2761424 0 .5.2238576.5.5s-.2238576.5-.5.5h-4c-.2761424 0-.5-.2238576-.5-.5s.2238576-.5.5-.5zm3-7h1c.2761424 0 .5.22385763.5.5s-.2238576.5-.5.5h-1c-.2761424 0-.5-.22385763-.5-.5s.2238576-.5.5-.5z" fill-rule="evenodd"/></svg>

<?xml version="1.0" encoding="UTF-8"?>
<svg width="24px" height="24px" viewBox="0 0 24 24" version="1.1" xmlns="http://www.w3.org/2000/svg" xmlns:xlink="http://www.w3.org/1999/xlink">
    <!-- Generator: Sketch 59.1 (86144) - https://sketch.com -->
    <title>Icons/Book</title>
    <desc>Created with Sketch.</desc>
    <g id="Icons/Book" stroke="none" stroke-width="1" fill="none" fill-rule="evenodd">
        <path d="M20,6 L20,16 C20,16.5522847 19.5522847,17 19,17 L14,17 L14,17 C12.8954305,17 12,17.8954305 12,19 C12,17.8954305 11.1045695,17 10,17 L5,17 C4.44771525,17 4,16.5522847 4,16 L4,6 L4,6 L3,6 L3,18 L9,18 C10.1946925,18 11.2670555,18.5237549 12,19.3541756 C12.7329445,18.5237549 13.8053075,18 15,18 L21,18 L21,6 L20,6 Z M4,5 L4,4 C4,3.44771525 4.44771525,3 5,3 L10,3 L10,3 C10.7683544,3 11.4692435,3.28885357 12,3.76389349 C12.5307565,3.28885357 13.2316456,3 14,3 L19,3 C19.5522847,3 20,3.44771525 20,4 L20,5 L20,5 L21,5 C21.5522847,5 22,5.44771525 22,6 L22,18 C22,18.5522847 21.5522847,19 21,19 L15,19 L15,19 C13.3431458,19 12,20.3431458 12,22 C12,20.3431458 10.6568542,19 9,19 L3,19 C2.44771525,19 2,18.5522847 2,18 L2,6 C2,5.44771525 2.44771525,5 3,5 L4,5 L4,5 Z M5,4 L5,16 L10,16 C10.7683544,16 11.4692435,16.2888536 12,16.7638935 C12.5307565,16.2888536 13.2316456,16 14,16 L19,16 L19,4 L14,4 C12.8954305,4 12,4.8954305 12,6 C12,4.8954305 11.1045695,4 10,4 L5,4 Z M6.5,11 L10.5,11 C10.7761424,11 11,11.2238576 11,11.5 C11,11.7761424 10.7761424,12 10.5,12 L6.5,12 C6.22385763,12 6,11.7761424 6,11.5 C6,11.2238576 6.22385763,11 6.5,11 Z M13.5,8 L17.5,8 C17.7761424,8 18,8.22385763 18,8.5 L18,11.5 C18,11.7761424 17.7761424,12 17.5,12 L13.5,12 C13.2238576,12 13,11.7761424 13,11.5 L13,8.5 C13,8.22385763 13.2238576,8 13.5,8 Z M14,9 L14,11 L17,11 L17,9 L14,9 Z M6.5,6 L10.5,6 C10.7761424,6 11,6.22385763 11,6.5 L11,9.5 C11,9.77614237 10.7761424,10 10.5,10 L6.5,10 C6.22385763,10 6,9.77614237 6,9.5 L6,6.5 C6,6.22385763 6.22385763,6 6.5,6 Z M7,7 L7,9 L10,9 L10,7 L7,7 Z M6.5,13 L7.5,13 C7.77614237,13 8,13.2238576 8,13.5 C8,13.7761424 7.77614237,14 7.5,14 L6.5,14 C6.22385763,14 6,13.7761424 6,13.5 C6,13.2238576 6.22385763,13 6.5,13 Z M9.5,13 L10.5,13 C10.7761424,13 11,13.2238576 11,13.5 C11,13.7761424 10.7761424,14 10.5,14 L9.5,14 C9.22385763,14 9,13.7761424 9,13.5 C9,13.2238576 9.22385763,13 9.5,13 Z M13.5,6 L14.5,6 C14.7761424,6 15,6.22385763 15,6.5 C15,6.77614237 14.7761424,7 14.5,7 L13.5,7 C13.2238576,7 13,6.77614237 13,6.5 C13,6.22385763 13.2238576,6 13.5,6 Z M13.5,13 L17.5,13 C17.7761424,13 18,13.2238576 18,13.5 C18,13.7761424 17.7761424,14 17.5,14 L13.5,14 C13.2238576,14 13,13.7761424 13,13.5 C13,13.2238576 13.2238576,13 13.5,13 Z M16.5,6 L17.5,6 C17.7761424,6 18,6.22385763 18,6.5 C18,6.77614237 17.7761424,7 17.5,7 L16.5,7 C16.2238576,7 16,6.77614237 16,6.5 C16,6.22385763 16.2238576,6 16.5,6 Z" id="Shape" fill="#000000"></path>
    </g>
</svg>
